X:1
T:Title
%%score ( 1 2 ) { 3 | 4 }
L:1/8
Q:1/4=82
M:2/4
K:Db
V:1 treble nm="Grand Piano, Soprano"
V:2 treble 
V:3 bass nm="Choir Pad, It Was Jesus, James Rowe"
V:4 bass 
V:1
 [DF][DF] [DF][DF] | [EG][FA] [FA][FA]- | [FA]/[FA]/[GB] [GB][GB] | [Gd] [FA]3 | %4
w: By~Fred~S.~Shepard * * *||||
 [FA][EG] [EG][CE] | [CG][DF] [EG][FA]- | [FA]/[Fd]/[Ec] [Ec][Ec] | [DB] [CA]3 | z .d3 | %9
w: |||||
 [GB] [FA]2 [DF] | [DF][DF] [CE][CE] | [DF] [EG]3 | z .c3 | [GA] [GB]2 [FA] | [EG][DF] [EG][FA] | %15
w: ||||||
 [GB] [FA]3 | [FA][DF] [DF][DF] | [EG][FA] [FA][FA] | [FA][GB]- [GB]/[GB]/[GB] | [Gd] [FA]3 | %20
w: |||||
 z .f3 | [Fd] [Ge]2 [Gd] | [GB][FA] [Fd][Gc] | [Ge] [Fd]3- | [Fd]4 |] %25
w: |||||
V:2
 x4 | x4 | x4 | x4 | x4 | x4 | x4 | x4 | [GB]/[Gc]/F F[Gc] | x4 | x4 | x4 | [EG]/[EG]/G G[GB] | %13
 x4 | x4 | x4 | x4 | x4 | x4 | x4 | [Fd]/[Ge]/A A[Ge] | x4 | x4 | x4 | x4 |] %25
V:3
 A,A, A,A, | A,[K:treble]D DD- | D/D/D DD | D A,3 | DC C[K:bass]A, | A,A, A,D- | D/A,/A, A,A, | %7
 =G, A,3 | A,/A,/A, A,[K:treble]D | D D2 A, | A,[K:bass]A, A,A, | A, C3 | C/C/E ED | C D2 D | %14
 DA, A,D | D D3 | D[K:bass]A, A,A, | A,D[K:treble] DD | DD- D/D/D | D D3 | D/D/D DD | D B,2 B, | %22
 DD DE | C D3- | D4 |] %25
V:4
 D,D, D,D, | D,D, D,D,- | D,/D,/G, G,G, | B,, D,3 | D,A, .A,2 | A,,D, D,D,- | D,/D,/E, E,E, | %7
 E, A,,3 | A,,/A,,/ D,2 D, | D, D,2 D, | D,A,, A,,A,, | A,, A,,3 | A,/A,/ A,2 A, | A, D,2 D, | %14
 D,D, D,D, | D, D,3 | D,D, D,D, | D,D, D,D, | D,G,- G,/G,/G, | B,, D,3 | D,/D,/D, D,D, | %21
 D, G,2 G, | G,A, A,A, | A, D,3- | D,4 |] %25

